X:1
T:Suite I
T:Suite I
T:BWV 1007
T:J.S. Bach
%%score ( 1 2 )
L:1/8
Q:1/4=80
M:4/4
K:G
V:1 bass nm="Violoncello" snm="Vc."
V:2 bass 
V:1
"^1. Prélude" (G,,/D,/B,/)A,/ B,/D,/B,/D,/ (G,,/D,/B,/)A,/ B,/D,/B,/D,/ | %1
 (G,,/E,/C/)B,/ C/E,/C/E,/ (G,,/E,/C/)B,/ C/E,/C/E,/ | %2
 (G,,/F,/C/)B,/ C/F,/C/F,/ (G,,/F,/C/)B,/ C/F,/C/F,/ | %3
 (G,,/G,/B,/)A,/ B,/G,/B,/G,/ (G,,/G,/B,/)A,/ B,/G,/B,/G,/ | %4
 (G,,/D,/B,/)A,/ B,/G,/F,/G,/ E,/G,/F,/G,/ B,,/D,/^C,/B,,/ | %5
 (^C,/G,/A,/)G,/ A,/G,/A,/G,/ (C,/G,/A,/)G,/ A,/G,/A,/G,/ | %6
 (F,/A,/D/)^C/ D/A,/G,/A,/ F,/A,/G,/A,/ D,/F,/E,/D,/ | %7
 (E,,/B,,/G,/)F,/ G,/B,,/G,/B,,/ (E,,/B,,/G,/)F,/ G,/B,,/G,/B,,/ | %8
 (E,,/^C,/D,/)E,/ D,/C,/B,,/A,,/ (G,/F,/E,/)D/ ^C/B,/A,/G,/ | %9
 (F,/E,/D,/)D/ A,/D/F,/A,/ (D,/E,/F,/)A,/ G,/F,/E,/D,/ | %10
 ^G,/D,/(=F,/E,/ F,/)D,/G,/D,/ B,/D,/(F,/E,/ F,/)D,/G,/D,/ | %11
 (C,/E,/A,/)B,/ C/A,/E,/D,/ (C,/E,/A,/)B,/ C/A,/^F,/E,/ | %12
 (^D,/F,/D,/)F,/ A,/F,/A,/F,/ (D,/F,/D,/)F,/ A,/F,/A,/F,/ | %13
 (G,/F,/E,/)G,/ F,/G,/A,/F,/ G,/F,/E,/=D,/ C,/B,,/A,,/G,,/ | %14
 (F,,/C,/D,/)C,/ D,/C,/D,/C,/ (F,,/C,/D,/)C,/ D,/C,/D,/C,/ | %15
 (G,,/B,,/=F,/)E,/ F,/B,,/F,/B,,/ (G,,/B,,/F,/)E,/ F,/B,,/F,/B,,/ | %16
 (G,,/C,/E,/)D,/ E,/C,/E,/C,/ (G,,/C,/E,/)D,/ E,/C,/E,/C,/ | %17
 (G,,/F,/C/)B,/ C/F,/C/F,/ (G,,/F,/C/)B,/ C/F,/C/F,/ | %18
"_Musescore Engraving Test" (G,,/D,/B,/)A,/ B,/G,/F,/E,/ D,/C,/B,,/A,,/ G,,/F,,/E,,/D,,/ | %19
"_Marshall T Rogers" (^C,,/A,,/E,/)F,/ G,/E,/F,/G,/ (C,,/A,,/E,/)F,/ G,/E,/F,/G,/ | %20
 (=C,,/A,,/D,/)E,/ F,/D,/E,/F,/ (C,,/A,,/D,/)E,/ F,/D,/E,/F,/ | %21
 (C,,/A,,/D,/)F,/ A,/^C/!fermata!D- D/A,,/B,,/=C,/ D,/E,/F,/G,/ | %22
 A,/F,/D,/E,/ F,/G,/A,/B,/ C/A,/F,/G,/ A,/B,/C/D/ | %23
 (_E/D/^C/)D/ (D/=C/B,/)C/ C/A,/F,/E,/ D,/A,,/B,,/C,/ | %24
 (D,,/A,,/D,/)F,/ A,/B,/C/A,/ B,/G,/D,/C,/ B,,/G,,/A,,/B,,/ | %25
 (D,,/G,,/B,,/)D,/ G,/A,/B,/G,/ (^C/B,/A,/)_B,/ (B,/A,/^G,/)A,/ | %26
 (A,/=G,/F,/)G,/ G,/E,/^C,/=B,,/ (A,,/C,/E,/)G,/ A,/^C/D/C/ | %27
 D/A,/(F,/E,/ F,/)A,/D,/F,/ A,,/D,/^C,/B,,/ A,,/G,,/F,,/E,,/ | %28
 D,,(=C/B,/ A,/G,/F,/E,/ D,/)(C/B,/A,/ G,/F,/E,/D,/ | %29
 C,/)(B,/A,/G,/ F,/E,/D,/C,/ B,,/)(A,/G,/F,/ E,/D,/C,/B,,/ | %30
 A,,/)(G,/F,/E,/) F,/A,/D,/A,/ E,/A,/F,/A,/ G,/A,/E,/A,/ | %31
 F,/A,/D,/A,/ G,/A,/E,/A,/ F,/A,/D,/A,/ G,/A,/E,/A,/ | %32
 F,/A,/D,/A,/ E,/A,/F,/A,/ x/ A,/x/A,/ x/ A,/x/A,/ | %33
 x/ A,/x/A,/ x/ A,/x/A,/ x/ A,/x/A,/ x/ A,/x/A,/ | %34
 x/ A,/x/A,/ x/ A,/x/A,/ x/ A,/x/A,/ x/ A,/x/A,/ | %35
 x/ A,/x/A,/ x/ A,/x/A,/ G,/A,/F,/A,/ G,/A,/E,/A,/ | %36
 F,/A,/D,/E,/ =F,/D,/^F,/D,/ G,/D,/^G,/D,/ A,/D,/_B,/D,/ | %37
 =B,/D,/C/D,/ ^C/D,/D/D,/ _E/D,/=E/D,/ =F/D,/^F/D,/ | %38
 (G/B,/D,/)B,/ G/B,/G/B,/ (G/B,/D,/)B,/ G/B,/G/B,/ | %39
 (G/A,/D,/)A,/ G/A,/G/A,/ (G/A,/D,/)A,/ G/A,/G/A,/ | (F/C/D,/)C/ F/C/F/C/ (F/C/D,/)C/ F/C/F/C/ | %41
 !fermata![B,G]8 |] %42
V:2
 x8 | x8 | x8 | x8 | x8 | x8 | x8 | x8 | x8 | x8 | x8 | x8 | x8 | x8 | x8 | x8 | x8 | x8 | x8 | %19
 x8 | x8 | x8 | x8 | x8 | x8 | x8 | x8 | x8 | x8 | x8 | x8 | x8 | x4 G,/x/A,/ x/ B,/x/D,/ x/ | %33
 A,/x/B,/ x/ C/x/D,/ x/ B,/x/C/ x/ D/x/B,/ x/ | C/x/B,/ x/ C/x/A,/ x/ B,/x/A,/ x/ B,/x/G,/ x/ | %35
 A,/x/G,/ x/ A,/x/F,/ x/ x4 | x8 | x8 | x8 | x8 | x8 | G,,2 x6 |] %42

